hosted/assets/icon/widgets/dark-mode/checkbox.svg

<svg width="50" height="50" viewBox="0 0 50 50" fill="none" xmlns="http://www.w3.org/2000/svg">
<path d="M11 4C7.14453 4 4 7.14453 4 11V39C4 42.8555 7.14453 46 11 46H39C42.8555 46 46 42.8555 46 39V11C46 7.14453 42.8555 4 39 4H11ZM11 6H39C41.7734 6 44 8.22656 44 11V39C44 41.7734 41.7734 44 39 44H11C8.22656 44 6 41.7734 6 39V11C6 8.22656 8.22656 6 11 6Z" fill="white"/>
<path fill-rule="evenodd" clip-rule="evenodd" d="M38.906 17.6174L23.257 36.061L12.8457 26.8746L16.1538 23.1254L22.7426 28.939L35.0935 14.3826L38.906 17.6174Z" fill="#3B9281"/>
<path fill-rule="evenodd" clip-rule="evenodd" d="M34.9783 12.9731L40.3158 17.5019L23.3602 37.4854L11.4346 26.9628L16.0659 21.7139L22.64 27.5146L34.9783 12.9731ZM35.2093 15.792L22.8458 30.3634L16.2424 24.5369L14.2575 26.7864L23.1544 34.6366L37.4969 17.733L35.2093 15.792Z" fill="white"/>
</svg>

<svg width="50" height="50" fill="none" xmlns="http://www.w3.org/2000/svg"><path d="M11 4c-3.855 0-7 3.145-7 7v28c0 3.855 3.145 7 7 7h28c3.855 0 7-3.145 7-7V11c0-3.855-3.145-7-7-7H11zm0 2h28c2.773 0 5 2.227 5 5v28c0 2.773-2.227 5-5 5H11c-2.773 0-5-2.227-5-5V11c0-2.773 2.227-5 5-5z" fill="#fff"/><path fill-rule="evenodd" clip-rule="evenodd" d="M38.906 17.617L23.257 36.061l-10.411-9.186 3.308-3.75 6.589 5.814 12.35-14.556 3.813 3.234z" fill="#3B9281"/><path fill-rule="evenodd" clip-rule="evenodd" d="M34.978 12.973l5.338 4.529L23.36 37.485 11.435 26.963l4.63-5.25 6.575 5.802 12.338-14.542zm.231 2.819L22.846 30.363l-6.604-5.826-1.985 2.25 8.897 7.85 14.343-16.904-2.288-1.941z" fill="#fff"/></svg>
